X:231
T: Der Hammerschmiedssohn
N: Q0088B
O: Suedosteuropa, Jugoslawien, Batschka, Vinkovci, Neudorf
N: Jede zweite Zeile = Refrain z.T. auf sinnfreie Silben.
R: Ballade, Verfuehrung, Schwangerschaft, Mord
M: 2/4
L: 1/16
K: F
C2 | C2F2F2F2 | F2A2F2
A2 | G3FE2D2 | C4z2
C2 | C2G2G2G2 | G2A2B2
d2 | c3BA2G2 | F4
c4 | A3cc2c2 | A3cc4
c3cd2c2 | c3BB2
B2 | G2B2B2B2 | G2B2B2c2 | A4z2

